public/resource/img/game/feedback/sad.svg

<svg xmlns="http://www.w3.org/2000/svg" xmlns:xlink="http://www.w3.org/1999/xlink" viewBox="0 0 32 32" stroke="none" stroke-width="0"><path d="M16,0 C7.16363636,0 0,7.16363636 0,16 C0,24.8363636 7.16363636,32 16,32 C24.8363636,32 32,24.8363636 32,16 C32,7.16363636 24.8363636,0 16,0 Z M10.1818182,9.45454545 C11.3818182,9.45454545 12.3636364,10.4363636 12.3636364,11.6363636 C12.3636364,12.8363636 11.3818182,13.8181818 10.1818182,13.8181818 C8.98181818,13.8181818 8,12.8363636 8,11.6363636 C8,10.4363636 8.98181818,9.45454545 10.1818182,9.45454545 Z M20.5090909,24 C20.5090909,21.4909091 18.4727273,19.4909091 16,19.4909091 C13.4909091,19.4909091 11.4909091,21.5272727 11.4909091,24 L8,24 C8,19.5636364 11.5636364,16 16,16 C20.4363636,16 24,19.5636364 24,24 L20.5090909,24 Z M21.8181818,13.8181818 C20.6181818,13.8181818 19.6363636,12.8363636 19.6363636,11.6363636 C19.6363636,10.4363636 20.6181818,9.45454545 21.8181818,9.45454545 C23.0181818,9.45454545 24,10.4363636 24,11.6363636 C24,12.8363636 23.0181818,13.8181818 21.8181818,13.8181818 Z" style="fill: rgb(226, 27, 60);"></path></svg>

<svg xmlns="http://www.w3.org/2000/svg" stroke-width="0" viewBox="0 0 32 32"><path fill="#e21b3c" d="M16 0C7.164 0 0 7.164 0 16s7.164 16 16 16 16-7.164 16-16S24.836 0 16 0zm-5.818 9.455c1.2 0 2.182.981 2.182 2.181 0 1.2-.982 2.182-2.182 2.182S8 12.836 8 11.636s.982-2.181 2.182-2.181zM20.509 24a4.508 4.508 0 1 0-9.018 0H8c0-4.436 3.564-8 8-8s8 3.564 8 8h-3.49zm1.31-10.182c-1.2 0-2.183-.982-2.183-2.182s.982-2.181 2.182-2.181S24 10.436 24 11.636c0 1.2-.982 2.182-2.182 2.182z"/></svg>
